images/shahr.svg

<svg height="24" viewBox="0 0 24 24" width="24" xmlns="http://www.w3.org/2000/svg" xmlns:xlink="http://www.w3.org/1999/xlink"><clipPath id="a"><path d="m0 0h20v20h-20z"/></clipPath><path d="m0 0h24v24h-24z" fill="none"/><g clip-path="url(#a)" transform="translate(2 2)"><path d="m0 0h20v20h-20z" fill="none"/><path d="m.04 20-.04-3.239a24.846 24.846 0 0 0 2.512-.324 18.026 18.026 0 0 0 4.781-1.482c.026-.013 2.625-1.35 2.625-2.268a.491.491 0 0 0 -.3-.509 4.564 4.564 0 0 0 -1.861-.332c-.132 0-.223 0-.247.005l-.034 2.949c-.157.007-.312.01-.46.01a6.781 6.781 0 0 1 -3.13-.655 3.11 3.11 0 0 1 -1.717-2.355 3.937 3.937 0 0 1 .962-3.206 9.133 9.133 0 0 1 2.735-2.124 24.113 24.113 0 0 1 8.834-2.743l.263-.036.037 3.239a24.209 24.209 0 0 0 -2.511.324 18.021 18.021 0 0 0 -4.782 1.483c-.026.013-2.624 1.342-2.625 2.263a.491.491 0 0 0 .305.509 4.561 4.561 0 0 0 1.86.332c.133 0 .224 0 .248-.005l.028-2.947c.157-.007.312-.01.46-.01a6.781 6.781 0 0 1 3.131.655 3.111 3.111 0 0 1 1.717 2.355 3.937 3.937 0 0 1 -.962 3.206 9.143 9.143 0 0 1 -2.735 2.123 24.105 24.105 0 0 1 -8.834 2.746l-.259.036zm3.54-13.138a1.865 1.865 0 1 1 1.845-1.862 1.857 1.857 0 0 1 -1.845 1.862zm3.936-1.909a1.865 1.865 0 1 1 1.844-1.864 1.857 1.857 0 0 1 -1.844 1.864zm4.294-1.223a1.865 1.865 0 1 1 1.846-1.865 1.857 1.857 0 0 1 -1.846 1.865z" fill="#d8262c" transform="translate(2.5)"/></g></svg>

<svg xmlns="http://www.w3.org/2000/svg" id="Component_148_1" width="24" height="24" viewBox="0 0 24 24">
    <defs>
        <clipPath id="clip-path">
            <path d="M0 0H20V20H0z" class="cls-1"/>
        </clipPath>
        <style>
            .cls-1{fill:none}
        </style>
    </defs>
    <path id="Rectangle_1289" d="M0 0H24V24H0z" class="cls-1"/>
    <g id="Bank_Shahr_Color" clip-path="url(#clip-path)" transform="translate(2 2)">
        <path id="Boundary" d="M0 0H20V20H0z" class="cls-1"/>
        <path id="Shape" fill="#d8262c" d="M.04 20L0 16.761a24.846 24.846 0 0 0 2.512-.324 18.026 18.026 0 0 0 4.781-1.482c.026-.013 2.625-1.35 2.625-2.268a.491.491 0 0 0-.3-.509 4.564 4.564 0 0 0-1.861-.332c-.132 0-.223 0-.247.005L7.476 14.8c-.157.007-.312.01-.46.01a6.781 6.781 0 0 1-3.13-.655A3.11 3.11 0 0 1 2.169 11.8a3.937 3.937 0 0 1 .962-3.206A9.133 9.133 0 0 1 5.866 6.47 24.113 24.113 0 0 1 14.7 3.727l.263-.036L15 6.93a24.209 24.209 0 0 0-2.511.324 18.021 18.021 0 0 0-4.782 1.483C7.681 8.75 5.083 10.079 5.082 11a.491.491 0 0 0 .305.509 4.561 4.561 0 0 0 1.86.332c.133 0 .224 0 .248-.005l.028-2.947c.157-.007.312-.01.46-.01a6.781 6.781 0 0 1 3.131.655 3.111 3.111 0 0 1 1.717 2.355 3.937 3.937 0 0 1-.962 3.206 9.143 9.143 0 0 1-2.735 2.123A24.105 24.105 0 0 1 .3 19.964L.041 20zM3.58 6.862A1.865 1.865 0 1 1 5.425 5 1.857 1.857 0 0 1 3.58 6.862zm3.936-1.909A1.865 1.865 0 1 1 9.36 3.089a1.857 1.857 0 0 1-1.844 1.864zM11.81 3.73a1.865 1.865 0 1 1 1.846-1.865A1.857 1.857 0 0 1 11.81 3.73z" transform="translate(2.5)"/>
    </g>
</svg>
